public/img/icons/behance.svg

<svg width="512" height="512" fill="none" xmlns="http://www.w3.org/2000/svg"><g clip-path="url(#clip0_650_530)" fill="#000"><path d="M210.624 240.619c10.624-5.344 18.656-11.296 24.16-17.728 9.792-11.584 14.624-26.944 14.624-45.984 0-18.528-4.832-34.368-14.496-47.648-16.128-21.632-43.424-32.704-82.016-33.28H0v312.096h142.56c16.064 0 30.944-1.376 44.704-4.192 13.76-2.848 25.664-8.064 35.744-15.68 8.96-6.624 16.448-14.848 22.4-24.544 9.408-14.656 14.112-31.264 14.112-49.76 0-17.92-4.128-33.184-12.32-45.728-8.288-12.544-20.448-21.728-36.576-27.552zM63.072 150.187h68.864c15.136 0 27.616 1.632 37.408 4.864 11.328 4.704 16.992 14.272 16.992 28.864 0 13.088-4.32 22.24-12.864 27.392-8.608 5.152-19.776 7.744-33.472 7.744H63.072v-68.864zm108.896 198.24c-7.616 3.68-18.336 5.504-32.064 5.504H63.072v-83.232h77.888c13.568.096 24.128 1.888 31.68 5.248 13.44 6.08 20.128 17.216 20.128 33.504 0 19.2-6.912 32.128-20.8 38.976zm290.784-237.888H327.168v38.848h135.584v-38.848zm47.104 153.312c-2.816-18.08-9.024-33.984-18.688-47.712-10.592-15.552-24.032-26.944-40.384-34.144-16.288-7.232-34.624-10.848-55.04-10.816-34.272 0-62.112 10.72-83.648 32-21.472 21.344-32.224 52.032-32.224 92.032 0 42.656 11.872 73.472 35.744 92.384 23.776 18.944 51.232 28.384 82.4 28.384 37.728 0 67.072-11.232 88.032-33.632 13.408-14.144 20.992-28.064 22.656-41.728H446.24c-3.616 6.752-7.808 12.032-12.608 15.872-8.704 7.04-20.032 10.56-33.92 10.56-13.216 0-24.416-2.912-33.76-8.704-15.424-9.28-23.488-25.536-24.512-48.672h170.464c.256-19.936-.384-35.264-2.048-45.824zm-166.88 5.984c2.24-15.008 7.68-26.912 16.32-35.712 8.64-8.768 20.864-13.184 36.512-13.216 14.432 0 26.496 4.128 36.32 12.416 9.696 8.352 15.168 20.48 16.288 36.512h-105.44z"/></g><defs><clipPath id="clip0_650_530"><path fill="#fff" d="M0 0h511.958v511.958H0z"/></clipPath></defs></svg>

<svg width="512" height="512" viewBox="0 0 512 512" fill="none" xmlns="http://www.w3.org/2000/svg">
<g clip-path="url(#clip0_650_530)">
<path d="M210.624 240.619C221.248 235.275 229.28 229.323 234.784 222.891C244.576 211.307 249.408 195.947 249.408 176.907C249.408 158.379 244.576 142.539 234.912 129.259C218.784 107.627 191.488 96.555 152.896 95.979H0V408.075H142.56C158.624 408.075 173.504 406.699 187.264 403.883C201.024 401.035 212.928 395.819 223.008 388.203C231.968 381.579 239.456 373.355 245.408 363.659C254.816 349.003 259.52 332.395 259.52 313.899C259.52 295.979 255.392 280.715 247.2 268.171C238.912 255.627 226.752 246.443 210.624 240.619ZM63.072 150.187H131.936C147.072 150.187 159.552 151.819 169.344 155.051C180.672 159.755 186.336 169.323 186.336 183.915C186.336 197.003 182.016 206.155 173.472 211.307C164.864 216.459 153.696 219.051 140 219.051H63.072V150.187ZM171.968 348.427C164.352 352.107 153.632 353.931 139.904 353.931H63.072V270.699H140.96C154.528 270.795 165.088 272.587 172.64 275.947C186.08 282.027 192.768 293.163 192.768 309.451C192.768 328.651 185.856 341.579 171.968 348.427Z" fill="black"/>
<path d="M462.752 110.539H327.168V149.387H462.752V110.539Z" fill="black"/>
<path d="M509.856 263.851C507.04 245.771 500.832 229.867 491.168 216.139C480.576 200.587 467.136 189.195 450.784 181.995C434.496 174.763 416.16 171.147 395.744 171.179C361.472 171.179 333.632 181.899 312.096 203.179C290.624 224.523 279.872 255.211 279.872 295.211C279.872 337.867 291.744 368.683 315.616 387.595C339.392 406.539 366.848 415.979 398.016 415.979C435.744 415.979 465.088 404.747 486.048 382.347C499.456 368.203 507.04 354.283 508.704 340.619H446.24C442.624 347.371 438.432 352.651 433.632 356.491C424.928 363.531 413.6 367.051 399.712 367.051C386.496 367.051 375.296 364.139 365.952 358.347C350.528 349.067 342.464 332.811 341.44 309.675H511.904C512.16 289.739 511.52 274.411 509.856 263.851ZM342.976 269.835C345.216 254.827 350.656 242.923 359.296 234.123C367.936 225.355 380.16 220.939 395.808 220.907C410.24 220.907 422.304 225.035 432.128 233.323C441.824 241.675 447.296 253.803 448.416 269.835H342.976Z" fill="black"/>
</g>
<defs>
<clipPath id="clip0_650_530">
<rect width="511.958" height="511.958" fill="white"/>
</clipPath>
</defs>
</svg>
